src/img/icons/login.svg

<svg width="32" height="32" viewBox="0 0 32 32" fill="none" xmlns="http://www.w3.org/2000/svg">
<path d="M16.9616 29C16.6889 29 16.4606 28.9076 16.2768 28.7228C16.093 28.538 16.0011 28.3086 16.0011 28.0346C16.0011 27.7605 16.093 27.5327 16.2768 27.3509C16.4606 27.1692 16.6889 27.0783 16.9616 27.0783H26.608C26.7255 27.0783 26.8333 27.0294 26.9315 26.9315C27.0294 26.8333 27.0783 26.7255 27.0783 26.608V5.392C27.0783 5.27449 27.0294 5.16667 26.9315 5.06853C26.8333 4.97065 26.7255 4.92171 26.608 4.92171H16.9616C16.6889 4.92171 16.4606 4.8293 16.2768 4.6445C16.093 4.4597 16.0011 4.23028 16.0011 3.95627C16.0011 3.68225 16.093 3.45436 16.2768 3.27262C16.4606 3.09087 16.6889 3 16.9616 3H26.608C27.2651 3 27.8281 3.23438 28.2969 3.70315C28.7656 4.17191 29 4.73486 29 5.392V26.608C29 27.2651 28.7656 27.8281 28.2969 28.2969C27.8281 28.7656 27.2651 29 26.608 29H16.9616ZM16.7509 16.9609H3.96085C3.68811 16.9609 3.45984 16.8685 3.27606 16.6836C3.09202 16.4988 3 16.2694 3 15.9954C3 15.7214 3.09202 15.4935 3.27606 15.3118C3.45984 15.13 3.68811 15.0391 3.96085 15.0391H16.7196L13.665 11.9841C13.4804 11.7999 13.3884 11.5795 13.3889 11.3231C13.3892 11.0666 13.4864 10.8387 13.6806 10.6394C13.8746 10.4401 14.1021 10.3407 14.3631 10.3412C14.6242 10.3419 14.8554 10.4387 15.0567 10.6314L19.6029 15.1776C19.8415 15.4225 19.9608 15.7037 19.9608 16.021C19.9608 16.3384 19.8415 16.616 19.6029 16.8538L15.0724 21.3843C14.893 21.5737 14.6735 21.6667 14.414 21.6634C14.1545 21.6598 13.9204 21.5589 13.7116 21.3606C13.5243 21.1613 13.4319 20.9318 13.4344 20.6724C13.437 20.4129 13.5354 20.1861 13.7296 19.9921L16.7509 16.9609Z" fill="#131212"/>
</svg>

<svg xmlns="http://www.w3.org/2000/svg" viewBox="0 0 32 32">
  <path fill="currentColor" d="M16.962 29a.927.927 0 0 1-.685-.277.937.937 0 0 1-.276-.688.935.935 0 0 1 .96-.956h9.647a.45.45 0 0 0 .323-.148.45.45 0 0 0 .147-.323V5.392a.45.45 0 0 0-.146-.323.45.45 0 0 0-.324-.147h-9.646a.927.927 0 0 1-.685-.277.937.937 0 0 1-.276-.689.935.935 0 0 1 .96-.956h9.647c.657 0 1.22.234 1.689.703.469.469.703 1.032.703 1.689v21.216c0 .657-.234 1.22-.703 1.689a2.303 2.303 0 0 1-1.689.703h-9.646Zm-.211-12.04H3.96a.927.927 0 0 1-.685-.276.936.936 0 0 1-.276-.689.935.935 0 0 1 .96-.956h12.76l-3.055-3.055a.898.898 0 0 1-.276-.66c0-.257.097-.485.292-.685a.92.92 0 0 1 .682-.298.98.98 0 0 1 .694.29l4.546 4.547c.238.244.358.526.358.843 0 .317-.12.595-.358.833l-4.53 4.53a.856.856 0 0 1-.659.28 1.017 1.017 0 0 1-.702-.303.961.961 0 0 1 .018-1.369l3.02-3.031Z"/>
</svg>
